X: 10041
M: C
L: 1/8
K: G
V: 1 staves=3
d3 B B2 G2 | A3 G A2 BA | G3 E E2 D2 | G4 z2 :|
|: e2 |\
d3 B B2 G2 | A3 G A2 e2 | d3 B B2 d2 | e4 g3 e |\
d3 B B2 G2 | A3 G A2 BA | G3 E E2 D2 | G4 z2 :|
V: 2
|: c2 |\
V: 3 clef=bass middle=d
|: G2 |\


